X:1
T:Eternal source of every joy
T:Eternal source of every joy - Lonwick (Thomas Clark)
C:Thomas Clark
Z:p76, A Fifth Set of
Z:Psalm & Hymn Tunes,
Z:London: [c1809]
%%score [ 1 2 3 4 ]
L:1/8
M:3/4
K:G
V:1 treble nm="Air" snm="S."
V:2 treble nm="[Alto]" snm="A."
V:3 treble-8 transpose=-12 nm="Tenor" snm="T."
V:4 bass nm="[Bass]" snm="B."
V:1
 G2 | (d2 c2) B2 | A4 G2 | (FG AB) (cd) | (c2 B2) z2 | c2 d2 e2 | d4 f2 | (gd dc) (cB) | %8
w: Thy|hand _ in|au- tumn|rich- * * * ly _|pours _|Through all our|coasts re-|dun- * * * dant _|
w: E-|ter- * nal|source of|ev- * * * ’ry _|joy, _|Well may thy|praise our|lips _ _ _ em- *|
w: The|flow- * ’ry|spring at|thy _ _ _ com- *|mand _|Em- balms the|air, and|paints _ _ _ the _|
 (B2 A2) z2 | A2 A2 d2 | (d2 ^c2) d2 | (e2 f2) g2 | f4 A2 | B4 ^c2 | d4 f2 | (f/e/g/e/ d2) ^c2 | %16
w: stores; _|And win- ters,|sof- * ten’d|by _ thy|care, No|more a|face of|hor- * * * * ror|
w: ploy, _|While in thy|tem- * ple|we _ ap-|pear, Whose|good- ness|crowns the|circ- * * * * ling|
w: land; _|The sum- mer|rays _ with|vi- * gour|shine To|raise the|corn, and|cheer _ _ _ _ the|
 d4 z2 | d2 c2 B2 | (AB cd) (ef) | (gd c2) B2 | (B2 A2) d2 | e4 e2 | d4 B2 | (3(cec B2) A2 | G4 |] %25
w: wear,|And win- ters,|sof- * * * ten’d _|by _ _ thy|care, _ No|more a|face of|hor- * * * ror|wear.|
w: year,|While in thy|tem- * * * ple _|we _ _ ap-|pear, _ Whose|good- ness|crowns the|circ- * * * ling|year.|
w: vine.|The sum- mer|rays _ _ _ with _|vi- * * gour|shine _ To|raise the|corn, and|cheer _ _ _ the|vine.|
V:2
 D2 | (G2 F2) G2 | F4 D2 | D4 A,2 | D4 z2 | z2 G2 GG | G4 A2 | (G2 F2) G2 | (G2 F2) z2 | F2 D2 F2 | %10
w: Thy|hand _ in|au- tumn|rich- ly|pours|Through all our|coasts re-|dun- * dant|stores; _|And win- ters,|
w: E-|ter- * nal|source of|ev- ’ry|joy,|Well may thy|praise our|lips _ em-|ploy, _|While in thy|
w: The|flow- * ’ry|spring at|thy com-|mand|Em- balms the|air, and|paints _ the|land; _|The sum- mer|
 E4 D2 | D4 ^C2 | D3 F AF | (D4 E2 | F4) A2 | (G2 F2) E2 | F4 z2 | G2 F2 G2 | (AG FG) (EC) | %19
w: sof- ten’d|by thy|care, No more a|face _|_ of|hor- * ror|wear,|And win- ters,|sof- * * * ten’d _|
w: tem- ple|we ap-|pear, Whose good- ness|crowns _|_ the|circ- * ling|year,|While in thy|tem- * * * ple _|
w: rays with|vi- gour|shine To raise the|corn, _|_ and|cheer _ the|vine.|The sum- mer|rays _ _ _ with _|
 D4 D2 | D4 z2 | z2 z G GG | G4 G2 | (A2 G2) F2 | G4 |] %25
w: by thy|care,|No more a|face of|hor- * ror|wear.|
w: we ap-|pear,|Whose good- ness|crowns the|circ- * ling|year.|
w: vi- gour|shine|To raise the|corn, and|cheer _ the|vine.|
V:3
 d2 | d4 d2 | d4 d2 | (cB AG) F2 | G4 B2 | (G>A B2) c2 | (B>c d2) d2 | d4 d2 | d4 z2 | d2 d2 A2 | %10
w: Thy|hand in|au- tumn|rich- * * * ly|pours Through|all _ _ our|coasts _ _ re-|dun- dant|stores;|And win- ters,|
w: E-|ter- nal|source of|ev- * * * ’ry|joy, Well|may _ _ thy|praise _ _ our|lips em-|ploy,|While in thy|
w: The|flow- ’ry|spring at|thy _ _ _ com-|mand Em-|balms _ _ the|air, _ _ and|paints the|land;|The sum- mer|
 A4 A2 | (B2 A2) A2 | A3 d fd | (B2 G2 E2 | A4) d2 | (B2 A2) A2 | A4 z2 | d2 d2 d2 | (FG AB) c2 | %19
w: sof- ten’d|by _ thy|care, No more a|face _ _|_ of|hor- * ror|wear,|And win- ters,|sof- * * * ten’d|
w: tem- ple|we _ ap-|pear, Whose good- ness|crowns _ _|_ the|circ- * ling|year,|While in thy|tem- * * * ple|
w: rays with|vi- * gour|shine To raise the|corn, _ _|_ and|cheer _ the|vine.|The sum- mer|rays _ _ _ with|
 (B2 A2) G2 | (G2 F2) B2 | c4 c2 | B4 d2 | (e2 d2) c2 | B4 |] %25
w: by _ thy|care, _ No|more a|face of|hor- * ror|wear.|
w: we _ ap-|pear, _ Whose|good- ness|crowns the|circ- * ling|year.|
w: vi- * gour|shine _ To|raise the|corn, and|cheer _ the|vine.|
V:4
 G,2 | (B,2"^43" A,2) G,2 | (D2"^42" C2)"^6" B,2 |"^43" (A,"^6"B,"^42" C"^6"B,)"^6" A,2 | %4
w: Thy|hand _ in|au- * tumn|rich- * * * ly|
w: E-|ter- * nal|source _ of|ev- * * * ’ry|
w: The|flow- * ’ry|spring _ at|thy _ _ _ com-|
"^4" G,3"^3" G,, G,"^42"=F, |"^6" (E,2"^64" D,2) C,2 | (G,>A,"^6" B,2)"^42" C2 | %7
w: pours Through all our|coasts, _ our|coasts, _ _ re-|
w: joy, Well may thy|praise, _ thy|praise, _ _ our|
w: mand Em- balms the|air, _ the|air, _ _ and|
"^6" (B,2"^64" A,2) G,2 |"^64""^53" D,4 z2 | D,2"^6" F,2 D,2 |"^4" (A,3"^#" G,)"^6" F,2 | %11
w: dun- * dant|stores;|And win- ters,|sof- * ten’d|
w: lips _ em-|ploy,|While in thy|tem- * ple|
w: paints _ the|land;|The sum- mer|rays _ with|
"^65" (G,2"^6" F,2)"^´43" E,2 | D,4 D,2 | G,4"^6F" G,2 |"^6" F,4 D,2 | %15
w: by _ thy|care, No|more a|face of|
w: we _ ap-|pear, Whose|good- ness|crowns the|
w: vi- * gour|shine To|raise the|corn, and|
"^6" (G,2"^64" A,2)"^5#" A,,2 | D,4 z2 |"^6" B,2"^43" A,2 G,2 | %18
w: hor- * ror|wear,|And win- ters,|
w: circ- * ling|year,|While in thy|
w: cheer _ the|vine.|The sum- mer|
"^53""^64" (D2"^64" C"^6"B,)"^5""^6" A,2 | (G,2"^65" F,2) G,2 | %20
w: sof- * * ten’d|by _ thy|
w: tem- * * ple|we _ ap-|
w: rays _ _ with|vi- * gour|
"^Original order of parts is Tenor - [Alto] - Air - [Bass], with Tenor & Alto in treble clef an octave above sounding pitch.Only the first verse of the text is given in the source: three other verses have been underlaid editorially.""^64""^53" D,4 z2 | %21
w: care,|
w: pear,|
w: shine|
 z2 z C, C,C, | G,4 G,2 |"^6" (C,2"^64" D,2)"^75" D,2 | G,,4 |] %25
w: No more a|face of|hor- * ror|wear.|
w: Whose good- ness|crowns the|circ- * ling|year.|
w: To raise the|corn, and|cheer _ the|vine.|

